X:1
T:Stewball
M:3/4
L:1/4
K:Bb
 z2 F| B c d| c B2-| B3-| B z B| B c d| c3-| c3| z2 c/2c/2| c/2 d3/2 e|\
 d c2-| c3-| c2 c/2c/2| A/2 B3/2 c| B3-| B3-| B2 z|

